client/public/assets/icons/standard/messaging_conversation.svg

<svg xmlns="http://www.w3.org/2000/svg" width="100" height="100" viewBox="0 0 100 100">
  <path fill="#FFFFFF" d="M54.6863976,71.3486058 C65.2800542,67.4402893 71.5149714,60.8593692 73.3911492,51.6058455 C77.9258951,53.8818602 81,58.3470894 81,63.5 C81,65.7019157 80.4364124,67.7429352 79.4563153,69.5863185 L81.1449195,74.9556236 C81.5465589,76.2413379 80.3416409,77.3663379 79.056395,76.9645522 L73.8372229,75.1253102 C71.6757637,76.3323361 69.1649118,77 66.4758735,77 C61.6071311,77 57.3088733,74.7733287 54.6863976,71.3486058 L54.6863976,71.3486058 Z M44.0983607,22 C57.4327869,22 68.1967213,32.0446429 68.2770492,44.5 C68.2770492,56.9553571 57.5131148,67 44.1786885,67 C39.5196721,67 35.1819672,65.7946429 31.4868852,63.625 C31.0852459,63.3839286 30.6032787,63.3035714 30.1213115,63.4642857 L23.052459,65.9553571 C21.7672131,66.3571429 20.5622951,65.2321429 20.9639344,63.9464286 L23.2131148,56.7946429 C23.3737705,56.3928571 23.2934426,55.9107143 23.052459,55.5089286 C21.1245902,52.2142857 20,48.5178571 20,44.5 C20,32.0446429 30.7639344,22 44.0983607,22 L44.0983607,22 Z M32,37 C30.8954305,37 30,37.8954305 30,39 L30,41 C30,42.1045695 30.8954305,43 32,43 L58,43 C59.1045695,43 60,42.1045695 60,41 L60,39 C60,37.8954305 59.1045695,37 58,37 L32,37 Z M32,48 C30.8954305,48 30,48.8954305 30,50 L30,52 C30,53.1045695 30.8954305,54 32,54 L46,54 C47.1045695,54 48,53.1045695 48,52 L48,50 C48,48.8954305 47.1045695,48 46,48 L32,48 Z"/>
</svg>

<?xml version="1.0"?><svg xmlns="http://www.w3.org/2000/svg" width="100" height="100" viewBox="0 0 100 100"><path fill="#fff" d="m54.7 71.3c10.6-3.9 16.8-10.4 18.7-19.7 4.5 2.3 7.6 6.7 7.6 11.9 0 2.2-0.6 4.2-1.5 6.1l1.6 5.4c0.4 1.2-0.8 2.4-2 2l-5.3-1.9c-2.1 1.2-4.6 1.9-7.3 1.9-4.9 0-9.2-2.2-11.8-5.7z m-10.6-49.3c13.3 0 24.1 10 24.2 22.5 0 12.5-10.8 22.5-24.1 22.5-4.7 0-9-1.2-12.7-3.4-0.4-0.2-0.9-0.3-1.4-0.1l-7 2.5c-1.3 0.4-2.5-0.8-2.1-2.1l2.2-7.1c0.2-0.4 0.1-0.9-0.1-1.3-2-3.3-3.1-7-3.1-11 0-12.5 10.8-22.5 24.1-22.5z m-12.1 15c-1.1 0-2 0.9-2 2v2c0 1.1 0.9 2 2 2h26c1.1 0 2-0.9 2-2v-2c0-1.1-0.9-2-2-2h-26z m0 11c-1.1 0-2 0.9-2 2v2c0 1.1 0.9 2 2 2h14c1.1 0 2-0.9 2-2v-2c0-1.1-0.9-2-2-2h-14z"></path></svg>
